X:1
T:Title
%%score { 1 | 2 }
L:1/8
M:6/8
K:G
V:1 treble nm="Grand Piano"
V:2 bass 
V:1
 z3 z2[Q:1/4=78] [B,G]/[CA]/ | [DB]2 [CA] [B,G]>[CF][DG] | [EA]2 G D2 G/A/ | BBB B2 E | %4
 c3- c2 [Ac] | [Ac]2 [GB] [FA]>[=F^G][^FA] | [DB]2 [CA] [B,G]2 [CE] | FFG [GB]2 A | %8
[M:5/8] G-G- G3 |[M:1/8] d/d/ |[M:3/4] d2 d d2 [Fd] | d .d3 z B/c/ | dd [Gd] [^Ge]2 [EB] | %13
 [Ec]4- [Ec][Ec] | [Ec]2 [Ec][EB]- [EB]/[EB]/[DB] | [CA]2 [CA] [CE]2 [EG]/[EA]/ | BB D B2 A | %17
[M:5/8] [B,G]-[B,G]- [B,G]3 |] %18
V:2
 z3 z2 [G,,D,]/[G,,D,]/ | [G,,D,]2 [G,,D,] [G,,D,]>[A,,D,][B,,G,] | %2
 [C,G,]2 [E,G,C] [G,B,]2 [G,B,D]/[G,CD]/ | [G,D][G,B,D][=F,A,D] [E,^G,E]2 [G,B,] | %4
 [A,E]3- [A,E]2 [G,E] | [F,D]2 [G,D] [D,C]>[D,B,][D,A,] | [G,,G,]2 [D,F,] [E,G,]2 [A,,G,] | %7
 [D,A,C][D,A,C][D,B,D] [D,D]2 [D,CD] |[M:5/8][K:treble] [G,B,D]-[G,B,D]- [G,B,D]3 | %9
[M:1/8] [G,B,G]/[G,B,G]/ |[M:3/4] [G,B,G]2 [G,B,G] [G,B,G]2 [D,A,] | %11
 [G,B,G] .[G,B,G]3 z [G,D]/[G,A,D]/ | [G,B,G][G,B,G][K:bass] [=F,B,] [E,B,]2 [E,^G,] | %13
 [A,,A,]4- [A,,A,][A,,A,] | [A,,A,]2 [A,,A,][B,,^G,]- [B,,G,]/[B,,G,]/[B,,G,] | %15
 [C,A,]2 [C,A,] [A,,A,]2 [C,G,]/[C,G,]/ | [D,G,D][D,G,D] [D,G,B,] [D,G,D]2 [D,F,C] | %17
[M:5/8] [G,,G,]-[G,,G,]- [G,,G,]3 |] %18

